brandFactory_export/1.Light/Documento_Archivo ZIP_1Light.svg

<?xml version="1.0" encoding="UTF-8"?>
<svg width="24px" height="24px" viewBox="0 0 24 24" version="1.1" xmlns="http://www.w3.org/2000/svg" xmlns:xlink="http://www.w3.org/1999/xlink">
    <title>1.Light/Documento_Archivo ZIP_1Light</title>
    <g id="Symbols" stroke="none" stroke-width="1" fill="none" fill-rule="evenodd">
        <g id="1.Light/Documento_Archivo-ZIP_1Light" fill="#5CB615" fill-rule="nonzero">
            <path d="M16.3092437,0.00672268908 C16.5243697,0.00672268908 16.7361345,0.0907563025 16.8907563,0.238655462 L23.3781513,6.5210084 C23.4857143,6.62521008 23.5495798,6.76302521 23.5831933,6.90756303 C23.610084,6.96806723 23.6235294,7.03193277 23.6235294,7.10252101 L23.6235294,22.1781513 C23.6235294,22.9613445 22.9478992,23.6235294 22.1478992,23.6235294 L7.22352941,23.6235294 C6.43697479,23.6235294 5.74789916,22.9478992 5.74789916,22.1781513 L5.79159664,18.5344538 L2.72268908,18.5344538 C1.22352941,18.5344538 0.00336134409,17.3142857 0.00336134409,15.8117647 L0.00336134409,10.7966387 C0.00336134409,9.29411765 1.22352941,8.07394958 2.72268908,8.07394958 L5.74789916,8.07394958 L5.74789916,1.45210084 C5.74789916,0.695798319 6.45042017,0.00672268908 7.22352941,0.00672268908 L16.3092437,0.00672268908 Z M15.4789916,0.991596639 L7.22016807,0.991596639 C6.99831933,0.991596639 6.73613445,1.23697479 6.73613445,1.44537815 L6.73613445,8.06722689 L14.7798319,8.06722689 C16.2789916,8.06722689 17.4991597,9.28739496 17.4991597,10.789916 L17.4991597,15.805042 C17.4991597,17.307563 16.2789916,18.5277311 14.7798319,18.5277311 L6.77983193,18.5277311 L6.73613445,22.1781513 C6.73613445,22.3966387 6.9815126,22.6252101 7.22016807,22.6252101 L22.1478992,22.6252101 L22.1478992,22.6319328 C22.3966387,22.6319328 22.6352941,22.410084 22.6352941,22.1781513 L22.6352941,7.91932773 L19.5529412,7.91932773 C18.3764706,7.91932773 17.3613445,7.5394958 16.6218487,6.82016807 C15.8756303,6.09747899 15.4789916,5.1092437 15.4789916,3.95966387 L15.4789916,0.991596639 Z M14.7831933,9.06218487 L2.71932773,9.06218487 C1.76806723,9.06218487 0.991596638,9.83865546 0.991596638,10.7932773 L0.991596638,15.8084034 C0.991596638,16.7630252 1.76470588,17.5394958 2.71932773,17.5394958 L14.7831933,17.5394958 C15.7344538,17.5394958 16.5109244,16.7630252 16.5109244,15.8084034 L16.5109244,10.7932773 C16.5109244,9.83865546 15.7378151,9.06218487 14.7831933,9.06218487 Z M7.36470588,11.210084 L7.36470588,11.8319328 L5.24033613,14.9042017 L7.37815126,14.9042017 L7.37815126,15.6504202 L3.95966387,15.6504202 L3.95966387,15.0554622 L6.11764706,11.9563025 L4.02352941,11.9563025 L4.02352941,11.210084 L7.36470588,11.210084 Z M9.12605042,11.2067227 L9.12605042,15.6504202 L8.11092437,15.6504202 L8.11092437,11.2067227 L9.12605042,11.2067227 Z M11.6235294,11.2067227 C12.3193277,11.2067227 12.7596639,11.3042017 13.0453782,11.5697479 C13.287395,11.7915966 13.4016807,12.1344538 13.4016807,12.6084034 C13.4016807,13.0823529 13.2907563,13.4386555 13.0689076,13.687395 C12.810084,13.9798319 12.4067227,14.1176471 11.8218487,14.1176471 L11.1058824,14.1176471 L11.1058824,15.6504202 L10.0907563,15.6504202 L10.0907563,11.2067227 L11.6235294,11.2067227 Z M11.5865546,11.9428571 L11.112605,11.9428571 L11.112605,13.3613445 L11.6134454,13.3613445 L11.6134454,13.3579832 C11.9394958,13.3579832 12.0739496,13.3109244 12.205042,13.189916 C12.3226891,13.0722689 12.3798319,12.8840336 12.3798319,12.6252101 C12.3798319,12.3865546 12.3294118,12.2084034 12.2117647,12.097479 C12.087395,11.9865546 11.8991597,11.9428571 11.5865546,11.9428571 Z M16.4705882,1.21008403 L16.4705882,3.95966387 C16.4705882,4.83361345 16.7596639,5.57647059 17.3109244,6.10756303 C17.8621849,6.64201681 18.6386555,6.92773109 19.5529412,6.92773109 L22.3731092,6.92773109 L22.3731092,6.92436975 L16.4705882,1.21008403 Z" id="Documento_Archivo-ZIP_1Light"></path>
        </g>
    </g>
</svg>

<svg width="24" height="24" viewBox="0 0 24 24" xmlns="http://www.w3.org/2000/svg"><path d="M16.31.007c.214 0 .426.084.58.232l6.488 6.282a.774.774 0 01.205.387.47.47 0 01.04.195v15.075c0 .783-.675 1.446-1.475 1.446H7.224c-.787 0-1.476-.676-1.476-1.446l.044-3.644h-3.07c-1.498 0-2.719-1.22-2.719-2.722v-5.015a2.723 2.723 0 012.72-2.723h3.025V1.452c0-.756.702-1.445 1.476-1.445h9.085zm-.831.985H7.22c-.222 0-.484.245-.484.453v6.622h8.044c1.499 0 2.72 1.22 2.72 2.723v5.015a2.723 2.723 0 01-2.72 2.723h-8l-.044 3.65c0 .219.246.447.484.447h14.928v.007c.249 0 .487-.222.487-.454V7.92h-3.082c-1.177 0-2.192-.38-2.931-1.099-.746-.723-1.143-1.71-1.143-2.86V.992zm-.696 8.07H2.72c-.95 0-1.727.777-1.727 1.731v5.015a1.73 1.73 0 001.727 1.731h12.064c.951 0 1.728-.776 1.728-1.73v-5.016a1.73 1.73 0 00-1.728-1.73zM7.365 11.21v.622L5.24 14.904h2.138v.746H3.96v-.595l2.158-3.099H4.024v-.746h3.34zm1.761-.003v4.443H8.111v-4.443h1.015zm2.498 0c.695 0 1.136.097 1.421.363.242.222.357.564.357 1.038 0 .474-.111.83-.333 1.08-.259.292-.662.43-1.247.43h-.716v1.532H10.09v-4.443h1.533zm-.037.736h-.474v1.418h.5v-.003c.326 0 .46-.047.592-.168.118-.118.175-.306.175-.565 0-.238-.05-.417-.168-.528-.125-.11-.313-.154-.625-.154zM16.47 1.21v2.75c0 .874.289 1.616.84 2.148.551.534 1.328.82 2.242.82h2.82v-.004L16.471 1.21z" fill="#5CB615" fill-rule="nonzero"/></svg>
